X:106
T:Late Home at Night 
T:Skin the Peeler   
B:CRE1.065 (Oro a Thaidhg a Ghra)
F:file ID: cre.1/106late_h
S:John Potts
N:Sounds a lot like my "favorite" slip jig "The Butterfly" ...
N:Gaelic name refers to a song sung to this tune.
M:9/8
Q:160
R:slip jig
K:G
B2e e2f g3|B2e e2g dBA|
B2e e2f g2a|b2a g2e dBA:|
B3 B2A G2A|BcB BAB dBA|
BcB B2A G2A|B2e g2e dBA:|

%%%

